assets/svgs/travel-grey/TravelGrey3.svg

<svg xmlns="http://www.w3.org/2000/svg" data-name="Layer 1" viewBox="0 0 128 128"><path d="M78.168 73.938H49.779a11.44 11.44 0 00-11.427 11.426v9.617a4.83 4.83 0 004.824 4.824H84.77a4.83 4.83 0 004.824-4.824v-9.617a11.44 11.44 0 00-11.426-11.426zm8.927 21.044a2.327 2.327 0 01-2.324 2.324H43.176a2.327 2.327 0 01-2.324-2.324v-9.618a8.937 8.937 0 018.927-8.927h28.389a8.937 8.937 0 018.927 8.927z"/><path d="M97.534 74V52.823a14.794 14.794 0 005.635-11.611v-8.36a6.024 6.024 0 00-6.017-6.018H76.895a10.874 10.874 0 00-10.785-9.613h-4.273a10.874 10.874 0 00-10.785 9.613H30.8a6.024 6.024 0 00-6.018 6.018v8.361a14.794 14.794 0 005.635 11.611V74A12.43 12.43 0 0019.25 86.35v7.85a4.566 4.566 0 004.561 4.561h6.651a13.008 13.008 0 0012.95 12.017h41.123a13.008 13.008 0 0012.95-12.017h6.7a4.567 4.567 0 004.565-4.561v-7.85A12.428 12.428 0 0097.534 74zm-35.7-54.277h4.276a8.376 8.376 0 018.269 7.113H53.567a8.376 8.376 0 018.27-7.115zm-34.556 21.49v-8.361a3.522 3.522 0 013.522-3.518h66.351a3.522 3.522 0 013.517 3.518v8.361a12.338 12.338 0 01-12.323 12.324h-2.471v-3.022a5.7 5.7 0 00-11.4 0v3.023h-21v-3.023a5.7 5.7 0 00-11.4 0v3.023H39.6a12.338 12.338 0 01-12.322-12.325zm49.695 9.3a3.2 3.2 0 016.4 0v8.547a3.2 3.2 0 11-6.4 0zm-32.4 0a3.2 3.2 0 016.4 0v8.547a3.2 3.2 0 11-6.4 0zM21.75 94.2v-7.85a9.928 9.928 0 018.663-9.834v19.747h-6.6A2.064 2.064 0 0121.75 94.2zm62.785 14.078H43.412a10.511 10.511 0 01-10.5-10.5V54.424a14.713 14.713 0 006.688 1.613h2.471v3.023a5.7 5.7 0 1011.4 0v-3.023h21v3.023a5.7 5.7 0 1011.4 0v-3.023h2.471a14.714 14.714 0 006.689-1.613v43.355a10.511 10.511 0 01-10.496 10.5zM106.25 94.2a2.064 2.064 0 01-2.062 2.061h-6.6V76.516a9.928 9.928 0 018.663 9.834z"/></svg>

<svg id="Layer_1" data-name="Layer 1" xmlns="http://www.w3.org/2000/svg" viewBox="0 0 128 128"><title>BAG</title><path d="M78.168,73.938H49.779A11.44,11.44,0,0,0,38.352,85.364v9.617a4.83,4.83,0,0,0,4.824,4.824H84.77a4.83,4.83,0,0,0,4.824-4.824V85.364A11.44,11.44,0,0,0,78.168,73.938Zm8.927,21.044a2.327,2.327,0,0,1-2.324,2.324H43.176a2.327,2.327,0,0,1-2.324-2.324V85.364a8.937,8.937,0,0,1,8.927-8.927H78.168a8.937,8.937,0,0,1,8.927,8.927Z"/><path d="M97.534,74V52.823a14.794,14.794,0,0,0,5.635-11.611V32.852a6.024,6.024,0,0,0-6.017-6.018H76.895A10.874,10.874,0,0,0,66.11,17.221H61.837a10.874,10.874,0,0,0-10.785,9.613H30.8a6.024,6.024,0,0,0-6.018,6.018v8.361a14.794,14.794,0,0,0,5.635,11.611V74A12.43,12.43,0,0,0,19.25,86.35V94.2a4.566,4.566,0,0,0,4.561,4.561h6.651a13.008,13.008,0,0,0,12.95,12.017H84.535a13.008,13.008,0,0,0,12.95-12.017h6.7A4.567,4.567,0,0,0,108.75,94.2V86.35A12.428,12.428,0,0,0,97.534,74Zm-35.7-54.277H66.11a8.376,8.376,0,0,1,8.269,7.113H53.567A8.376,8.376,0,0,1,61.837,19.721ZM27.278,41.213V32.852A3.522,3.522,0,0,1,30.8,29.334H97.151a3.522,3.522,0,0,1,3.517,3.518v8.361A12.338,12.338,0,0,1,88.345,53.537H85.874V50.515a5.7,5.7,0,0,0-11.4,0v3.023h-21V50.515a5.7,5.7,0,0,0-11.4,0v3.023H39.6A12.338,12.338,0,0,1,27.278,41.213Zm49.695,9.3a3.2,3.2,0,0,1,6.4,0V59.06a3.2,3.2,0,1,1-6.4,0Zm-32.4,0a3.2,3.2,0,0,1,6.4,0V59.06a3.2,3.2,0,1,1-6.4,0ZM21.75,94.2V86.35a9.928,9.928,0,0,1,8.663-9.834V96.263h-6.6A2.064,2.064,0,0,1,21.75,94.2Zm62.785,14.078H43.412a10.511,10.511,0,0,1-10.5-10.5V54.424A14.713,14.713,0,0,0,39.6,56.037h2.471V59.06a5.7,5.7,0,1,0,11.4,0V56.037h21V59.06a5.7,5.7,0,1,0,11.4,0V56.037h2.471a14.714,14.714,0,0,0,6.689-1.613V97.779A10.511,10.511,0,0,1,84.535,108.279ZM106.25,94.2a2.064,2.064,0,0,1-2.062,2.061h-6.6V76.516a9.928,9.928,0,0,1,8.663,9.834Z"/></svg>
